static/assets/images/products/kubestash/addons/memcached-stash-addon.svg

<svg width="32" height="32" viewBox="0 0 32 32" fill="none" xmlns="http://www.w3.org/2000/svg">
<path d="M15.36 0H17.408H18.656C20.192 0.128 21.728 0.384 23.232 0.768C24.736 1.152 26.176 1.728 27.52 2.496C28.416 2.976 29.184 3.648 29.792 4.448C30.144 4.864 30.4 5.408 30.496 5.952C30.592 6.496 30.56 7.072 30.4 7.616C30.144 8.384 29.696 9.056 29.088 9.568C28.16 10.4 27.136 11.04 25.984 11.52C24.032 12.32 21.984 12.864 19.904 13.088C18.144 13.28 16.352 13.344 14.592 13.248C12.864 13.216 11.136 12.992 9.44 12.576C7.904 12.224 6.432 11.648 5.088 10.848C4.192 10.336 3.424 9.664 2.816 8.864C2.304 8.256 2.016 7.52 2.016 6.72C1.984 5.952 2.24 5.184 2.72 4.544C3.04 4.128 3.392 3.744 3.808 3.392C4.992 2.464 6.368 1.728 7.808 1.28C9.952 0.544 12.192 0.128 14.464 0H15.36Z" fill="#1971BD"/>
<path d="M12.672 22.4959L12.864 20.5759C13.344 21.1839 13.728 21.8239 14.016 22.5279L12.672 22.4959Z" fill="#1971BD"/>
<path d="M18.496 22.5919C18.784 21.8559 19.168 21.1839 19.648 20.5439L19.84 22.3999L18.496 22.5919Z" fill="#1971BD"/>
<path d="M30.144 10.688C28.864 11.744 27.424 12.576 25.856 13.12C23.328 14.016 20.704 14.528 18.016 14.624C16 14.72 13.952 14.656 11.968 14.368C10.176 14.144 8.416 13.696 6.72 13.056C5.376 12.576 4.128 11.904 3.008 11.04L2.016 10.208V10.4C2.016 12.192 2.016 13.984 2.016 15.808C2.016 16.704 2.336 17.568 2.912 18.272C3.008 18.368 3.104 18.464 3.168 18.56C5.504 18.144 7.584 18.688 9.344 20.416C9.504 20.576 9.824 20.704 10.08 20.704C10.368 20.704 10.624 20.736 10.88 20.768C10.88 20.672 10.88 20.576 10.912 20.448C11.008 19.712 11.264 18.944 11.264 18.176C11.264 17.984 11.328 17.984 11.456 17.984H13.76C13.824 17.984 13.888 17.984 13.92 18.016C13.984 18.048 14.016 18.08 14.048 18.112L16.32 21.12V20.992L18.592 18.08C18.624 18.016 18.688 17.952 18.752 17.92C18.816 17.888 18.912 17.856 18.976 17.888C19.616 17.888 20.224 17.888 20.864 17.888H21.472C21.76 19.328 21.92 20.768 21.984 22.24H22.016C23.52 21.952 24.96 21.472 26.336 20.832C27.52 20.288 28.576 19.52 29.408 18.56C30.144 17.824 30.56 16.832 30.56 15.808C30.56 14.016 30.56 12.256 30.56 10.496V10.272L30.144 10.688Z" fill="#1971BD"/>
<path d="M14.56 24.3519C14.656 24.8959 14.848 25.2479 15.2 25.5039L14.72 23.9039C14.72 23.8719 14.72 23.8399 14.688 23.8399C14.656 23.8399 14.656 23.8079 14.624 23.7759C14.592 23.7439 14.592 23.7439 14.56 23.7439C14.528 23.7439 14.496 23.7439 14.464 23.7439H14.4C14.464 23.9359 14.528 24.1279 14.56 24.3519Z" fill="#1971BD"/>
<path d="M30.464 19.7119C30.016 20.0639 29.6 20.4799 29.12 20.8319C27.424 21.9199 25.536 22.6879 23.552 23.1039L22.048 23.4559V28.9599H19.072C19.552 27.2639 19.776 25.5039 19.808 23.7439L18.016 23.8719C17.984 23.8399 17.952 23.8399 17.92 23.8399C17.888 23.8399 17.856 23.8399 17.824 23.8719C17.6 24.6399 17.376 25.4079 17.12 26.1439C17.12 26.2719 17.12 26.2719 17.12 26.2719H16.48C16.896 26.5919 17.248 27.0079 17.536 27.4559C17.6 27.4559 17.632 27.4239 17.696 27.4239C17.856 27.4239 18.016 27.4879 18.144 27.5839C18.272 27.6799 18.368 27.8399 18.4 27.9999C18.4 28.0959 18.368 28.1919 18.336 28.2559C18.304 28.3519 18.24 28.4159 18.176 28.4799C18.144 28.5119 18.08 28.5759 18.016 28.6079C18.176 29.1519 18.208 29.7279 18.112 30.3039C18.016 30.9119 17.856 31.4559 17.6 31.9359C18.688 31.8719 19.744 31.7759 20.8 31.6159C22.528 31.3599 24.224 30.9119 25.888 30.2719C27.104 29.7919 28.256 29.0879 29.216 28.2239C29.92 27.6159 30.4 26.8159 30.624 25.9519C30.624 25.7599 30.624 25.5679 30.624 25.3759V19.7119H30.464Z" fill="#1971BD"/>
<path d="M6.784 21.9841C8.352 23.5521 9.984 25.1521 11.648 26.8161C10.88 26.8161 10.112 26.8161 9.28 26.8161C9.28 28.5121 9.28 30.1761 9.28 31.8401C7.552 31.8401 5.92 31.8401 4.224 31.8401C4.224 30.1761 4.224 28.5441 4.224 26.8481C3.392 26.8481 2.624 26.8481 1.824 26.8481C3.52 25.1841 5.152 23.5521 6.784 21.9841Z" fill="#1971BD"/>
</svg>

<svg xmlns="http://www.w3.org/2000/svg" width="32" height="32" fill="#1971bd" xmlns:v="https://vecta.io/nano"><path d="M15.36 0h2.048 1.248a27.89 27.89 0 0 1 4.576.768c1.504.384 2.944.96 4.288 1.728a7.03 7.03 0 0 1 2.272 1.952c.352.416.608.96.704 1.504a3.67 3.67 0 0 1-.096 1.664 4.32 4.32 0 0 1-1.312 1.952 10.82 10.82 0 0 1-3.104 1.952c-1.952.8-4 1.344-6.08 1.568-1.76.192-3.552.256-5.312.16a23.45 23.45 0 0 1-5.152-.672c-1.536-.352-3.008-.928-4.352-1.728a7.54 7.54 0 0 1-2.272-1.984c-.512-.608-.8-1.344-.8-2.144-.032-.768.224-1.536.704-2.176a7.38 7.38 0 0 1 1.088-1.152 12.64 12.64 0 0 1 4-2.112C9.952.544 12.192.128 14.464 0h.896zm-2.688 22.496l.192-1.92c.48.608.864 1.248 1.152 1.952l-1.344-.032zm5.824.096c.288-.736.672-1.408 1.152-2.048l.192 1.856-1.344.192zm11.648-11.904a13.9 13.9 0 0 1-4.288 2.432 26.19 26.19 0 0 1-7.84 1.504c-2.016.096-4.064.032-6.048-.256a22.93 22.93 0 0 1-5.248-1.312c-1.344-.48-2.592-1.152-3.712-2.016l-.992-.832v.192 5.408c0 .896.32 1.76.896 2.464a2.07 2.07 0 0 1 .256.288c2.336-.416 4.416.128 6.176 1.856.16.16.48.288.736.288.288 0 .544.032.8.064 0-.096 0-.192.032-.32.096-.736.352-1.504.352-2.272 0-.192.064-.192.192-.192h2.304c.064 0 .128 0 .16.032.064.032.096.064.128.096l2.272 3.008v-.128l2.272-2.912c.032-.064.096-.128.16-.16s.16-.064.224-.032h1.888.608c.288 1.44.448 2.88.512 4.352h.032c1.504-.288 2.944-.768 4.32-1.408 1.184-.544 2.24-1.312 3.072-2.272.736-.736 1.152-1.728 1.152-2.752v-5.312-.224l-.416.416zM14.56 24.352c.096.544.288.896.64 1.152l-.48-1.6c0-.032 0-.064-.032-.064s-.032-.032-.064-.064-.032-.032-.064-.032h-.096-.064c.064.192.128.384.16.608zm15.904-4.64l-1.344 1.12c-1.696 1.088-3.584 1.856-5.568 2.272l-1.504.352v5.504h-2.976c.48-1.696.704-3.456.736-5.216l-1.792.128c-.032-.032-.064-.032-.096-.032s-.064 0-.096.032l-.704 2.272v.128h-.64c.416.32.768.736 1.056 1.184.064 0 .096-.032.16-.032.16 0 .32.064.448.16A.71.71 0 0 1 18.4 28c0 .096-.032.192-.064.256-.032.096-.096.16-.16.224-.032.032-.096.096-.16.128.16.544.192 1.12.096 1.696-.096.608-.256 1.152-.512 1.632l3.2-.32c1.728-.256 3.424-.704 5.088-1.344 1.216-.48 2.368-1.184 3.328-2.048a4.49 4.49 0 0 0 1.408-2.272v-.576-5.664h-.16zm-23.68 2.272l4.864 4.832H9.28v5.024H4.224v-4.992h-2.4l4.96-4.864z"/></svg>
